X: 2252
T: CROPPIES LIE DOWN
Q: "Irish Jig."
R: Jig.
%R: jig
B: James Kerr "Merry Melodies" v.2 p.28 #252
Z: 2016 John Chambers <jc:trillian.mit.edu>
M: 6/8
L: 1/8
K: G
vg/ue/ |\
dBG GFG | ABA ABd | vg2ve dBd | gGG G2 g/e/ |\
dBG GFG | ABA ABd | g2e dBd | gGG G2 :|
|: ud |\
def gfg | efg agf | gab efg | dBG (B2A) |\
G2z e2z | dBd GBd | g2z e2z | dBg G2 :|
